X: 20
T: Go Tell It On the Mountain
P: piffero primo c0045
O: spiritual
%R: march
F: http://ancients.sudburymuster.org/mus/col/pdf/carolsF.pdf
Z: 2020 John Chambers <jc:trillian.mit.edu>
M: 4/4
L: 1/8
K: G
% - - - - - - - - - -
[|\
B2d2 d2e2 | d2 B4 G2 | A2A2 G2A2 | B6 G2 |\
B2d2 d2e2 | d2 B4 G2 | A2A2 G2E2 | D4 Hc4 ||
B4 B>AG>E | D4 G4 | AA2A A2G2 | B2d2 (ed3) |\
B4 B>AG>E | D4 G2c2 | B2B2 AGA2 | G8 |]
%% - - - - - - - - - -


